public/images/icons/contact-book.svg

<svg id="Layer_1" xmlns="http://www.w3.org/2000/svg" viewBox="0 0 24 24"><style>.st0{fill:none;stroke:#474280;stroke-width:.5;stroke-linecap:round;stroke-linejoin:round;stroke-miterlimit:10}</style><path class="st0" d="M5.9 4.5h11v15.4h-11V4.5zm3.7 2.9H14v2.9H9.6V7.4zm-4.4-.7h1.5M5.2 8.9h1.5m-1.5 2.2h1.5m-1.5 2.2h1.5m-1.5 2.2h1.5m-1.5 2.2h1.5M17 6h2.2v2.9H17V6zm0 2.9h2.2v2.9H17V8.9zm0 2.9h2.2v2.9H17v-2.9zm0 3h2.2v2.9H17v-2.9z"/></svg>

<?xml version="1.0" encoding="utf-8"?>
<!-- Generator: Adobe Illustrator 19.2.0, SVG Export Plug-In . SVG Version: 6.00 Build 0)  -->
<svg version="1.1" id="Layer_1" xmlns="http://www.w3.org/2000/svg" xmlns:xlink="http://www.w3.org/1999/xlink" x="0px" y="0px"
	 viewBox="0 0 24 24" style="enable-background:new 0 0 24 24;" xml:space="preserve">
<style type="text/css">
	.st0{fill:none;stroke:#474280;stroke-width:0.5;stroke-linecap:round;stroke-linejoin:round;stroke-miterlimit:10;}
</style>
<g>
	<path class="st0" d="M5.9,4.5h11v15.4h-11V4.5z M9.6,7.4H14v2.9H9.6V7.4z M5.2,6.7h1.5 M5.2,8.9h1.5 M5.2,11.1h1.5 M5.2,13.3h1.5
		 M5.2,15.5h1.5 M5.2,17.7h1.5"/>
	<path class="st0" d="M17,6h2.2v2.9H17V6z M17,8.9h2.2v2.9H17V8.9z M17,11.8h2.2v2.9H17V11.8z M17,14.8h2.2v2.9H17V14.8z"/>
</g>
</svg>
